public/img/quarter-icon-4.svg

<svg width="55" height="55" viewBox="0 0 55 55" fill="none" xmlns="http://www.w3.org/2000/svg">
<g clip-path="url(#clip0)">
<path d="M53.3357 46.8187L53.3103 46.7934L53.3399 46.7596L52.5881 46.1218L47.3297 41.2393C47.3297 41.2393 47.2368 41.3365 47.0847 41.4801C47.0847 41.4801 47.0256 41.5434 46.9453 41.6321C45.7458 42.7514 41.8982 45.9909 37.3916 46.0542C37.2902 46.0542 37.1973 46.0542 37.1002 46.0542C34.7265 45.7924 32.4119 44.5211 30.0636 42.1601C26.1652 38.2406 21.8318 36.1161 17.1689 35.8247C17.038 35.8247 16.9071 35.8247 16.7804 35.8247C16.0783 35.7625 15.373 35.7442 14.6686 35.7698C7.64049 36.057 2.42014 40.7663 0.646224 42.5824C0.27877 42.9372 0.0464638 43.178 0.00422773 43.2244L0.0295941 43.2498L0 43.2878L0.751814 43.9213L6.00595 48.7869C6.00595 48.7869 6.09891 48.6898 6.25096 48.5419L6.39026 48.3899C7.58977 47.2664 11.4333 44.0269 15.9441 43.9678C16.0413 43.9678 16.1384 43.9678 16.2355 43.9678C18.6092 44.2254 20.9237 45.501 23.272 47.8619C27.1704 51.7815 31.5038 53.9059 36.1667 54.1974C36.2976 54.1974 36.4286 54.1974 36.5553 54.1974C37.2574 54.2595 37.9627 54.2779 38.6671 54.2523C45.691 53.9651 50.9156 49.2515 52.6895 47.4354C53.0569 47.0848 53.2892 46.8441 53.3315 46.7934" fill="#FFD100"/>
<path d="M38.8728 9.71428C36.1121 9.71511 33.4137 10.5345 31.1187 12.0689C28.8237 13.6032 27.0352 15.7836 25.9793 18.3343C24.9235 20.8851 24.6476 23.6916 25.1867 26.3992C25.7258 29.1067 27.0556 31.5935 29.008 33.5453C30.9603 35.4971 33.4476 36.8261 36.1553 37.3644C38.863 37.9027 41.6694 37.626 44.2198 36.5693C46.7703 35.5127 48.9501 33.7235 50.4838 31.4281C52.0174 29.1326 52.8359 26.4339 52.8359 23.6733C52.8259 19.9754 51.3508 16.4323 48.7336 13.8199C46.1164 11.2075 42.5707 9.73874 38.8728 9.7354V9.71428ZM44.676 18.0179C45.1988 18.0187 45.7095 18.1745 46.1438 18.4655C46.578 18.7566 46.9163 19.1698 47.1157 19.653C47.3152 20.1362 47.3669 20.6677 47.2644 21.1803C47.1619 21.6929 46.9098 22.1636 46.5398 22.5329C46.1699 22.9023 45.6988 23.1537 45.186 23.2553C44.6733 23.357 44.1419 23.3044 43.659 23.1042C43.1761 22.9039 42.7634 22.565 42.4731 22.1303C42.1827 21.6956 42.0278 21.1846 42.0278 20.6619C42.0278 20.3143 42.0964 19.9701 42.2295 19.6491C42.3626 19.328 42.5577 19.0364 42.8037 18.7908C43.0496 18.5452 43.3416 18.3506 43.6629 18.2179C43.9842 18.0853 44.3285 18.0173 44.676 18.0179ZM32.512 18.0179C33.0349 18.0179 33.5461 18.173 33.9809 18.4635C34.4157 18.754 34.7546 19.1669 34.9547 19.6501C35.1548 20.1332 35.2072 20.6648 35.1052 21.1777C35.0031 21.6906 34.7514 22.1617 34.3816 22.5314C34.0118 22.9012 33.5407 23.153 33.0278 23.255C32.5149 23.3571 31.9834 23.3047 31.5002 23.1046C31.0171 22.9045 30.6041 22.5656 30.3136 22.1308C30.0231 21.696 29.868 21.1848 29.868 20.6619C29.8692 19.961 30.1481 19.2891 30.6437 18.7935C31.1393 18.2979 31.8111 18.019 32.512 18.0179ZM46.6907 30.9548C44.5755 32.9445 41.781 34.0524 38.877 34.0524C35.9731 34.0524 33.1785 32.9445 31.0633 30.9548C30.1027 30.0575 29.3015 29.0035 28.6939 27.8378L29.6273 27.4154C30.1861 28.4768 30.9217 29.4352 31.8025 30.2494C33.7222 32.0434 36.2516 33.0413 38.8791 33.0413C41.5066 33.0413 44.036 32.0434 45.9558 30.2494C46.8331 29.4331 47.5669 28.4751 48.1267 27.4154L49.0558 27.8378C48.4525 29.0051 47.6525 30.0595 46.6907 30.9548Z" fill="#FFD100"/>
</g>
<defs>
<clipPath id="clip0">
<rect width="54.0621" height="54.0621" fill="white"/>
</clipPath>
</defs>
</svg>

<svg width="55" height="55" fill="none" xmlns="http://www.w3.org/2000/svg"><g clip-path="url(#clip0)" fill="#FFD100"><path d="M53.336 46.819l-.026-.026.03-.033-.752-.638-5.258-4.883s-.093.098-.245.241c0 0-.06.063-.14.152-1.2 1.12-5.047 4.359-9.553 4.422H37.1c-2.373-.262-4.688-1.533-7.036-3.894-3.899-3.92-8.232-6.044-12.895-6.335h-.389a16.953 16.953 0 00-2.111-.055C7.64 36.057 2.42 40.766.646 42.582c-.367.355-.6.596-.642.642l.026.026-.03.038.752.633 5.254 4.866s.093-.097.245-.245l.14-.152c1.199-1.124 5.042-4.363 9.553-4.422h.291c2.374.257 4.689 1.533 7.037 3.894 3.898 3.92 8.232 6.044 12.895 6.335h.388c.702.063 1.408.08 2.112.055 7.024-.287 12.249-5 14.023-6.817.367-.35.6-.59.642-.642"/><path d="M38.873 9.714a13.959 13.959 0 1013.963 13.96 13.975 13.975 0 00-13.963-13.94v-.02zm5.803 8.304a2.644 2.644 0 11-.008 5.288 2.644 2.644 0 01.008-5.288zm-12.164 0a2.644 2.644 0 110 5.288 2.644 2.644 0 010-5.288zm14.179 12.937a11.404 11.404 0 01-15.628 0 11.606 11.606 0 01-2.37-3.117l.934-.423a10.556 10.556 0 002.175 2.834 10.364 10.364 0 0014.154 0 10.694 10.694 0 002.17-2.834l.93.423a11.424 11.424 0 01-2.365 3.117z"/></g><defs><clipPath id="clip0"><path fill="#fff" d="M0 0h54.062v54.062H0z"/></clipPath></defs></svg>
